packages/icons/raw/imported/SportFormula1.svg

<svg width="32" height="32" viewBox="0 0 32 32" fill="none" xmlns="http://www.w3.org/2000/svg">
<path d="M6.27514 21.2445C6.12896 22.4309 7.05449 23.4775 8.24986 23.4775V23.4775C9.24878 23.4775 10.0928 22.7368 10.2226 21.7464L10.4715 19.8475C10.5367 19.3497 10.961 18.9775 11.463 18.9775H15.9196C16.8885 18.9775 17.7016 18.2469 17.8048 17.2835V17.2835C17.9249 16.1628 17.0467 15.1855 15.9196 15.1855H12.1698C11.5683 15.1855 11.1029 14.6583 11.1776 14.0614L11.2803 13.2399C11.3428 12.7395 11.7682 12.364 12.2725 12.364H16.711C17.6912 12.364 18.5161 11.6299 18.6299 10.6562V10.6562C18.764 9.50816 17.8668 8.5 16.711 8.5H9.61419C8.60421 8.5 7.75272 9.25301 7.6292 10.2554L6.27514 21.2445Z" stroke="black"/>
<path d="M21.2068 10.2665C21.3252 9.25917 22.1789 8.5 23.1931 8.5H23.7511C24.9482 8.5 25.8772 9.5446 25.7374 10.7335L24.4441 21.7335C24.3256 22.7408 23.472 23.5 22.4577 23.5H21.8998C20.7026 23.5 19.7736 22.4554 19.9134 21.2665L21.2068 10.2665Z" stroke="black"/>
</svg>

<svg width="32" height="32" fill="none" xmlns="http://www.w3.org/2000/svg"><path d="M6.275 21.244a1.99 1.99 0 0 0 3.947.502l.25-1.898a1 1 0 0 1 .991-.87h4.457a1.896 1.896 0 0 0 0-3.792h-3.75a1 1 0 0 1-.992-1.125l.102-.821a1 1 0 0 1 .993-.876h4.438a1.932 1.932 0 0 0 0-3.864H9.614a2 2 0 0 0-1.985 1.755l-1.354 10.99ZM21.207 10.267A2 2 0 0 1 23.193 8.5h.558a2 2 0 0 1 1.986 2.233l-1.293 11a2 2 0 0 1-1.986 1.767H21.9a2 2 0 0 1-1.987-2.233l1.294-11Z" stroke="#000"/></svg>
